src/www/images/vamp_logo_blue.svg

<?xml version="1.0" encoding="UTF-8" standalone="no"?>
<svg width="285px" height="86px" viewBox="0 0 285 86" version="1.1" xmlns="http://www.w3.org/2000/svg" xmlns:xlink="http://www.w3.org/1999/xlink" xmlns:sketch="http://www.bohemiancoding.com/sketch/ns">
    <!-- Generator: Sketch 3.2.2 (9983) - http://www.bohemiancoding.com/sketch -->
    <title>Slice 1</title>
    <desc>Created with Sketch.</desc>
    <defs></defs>
    <g id="Page-1" stroke="none" stroke-width="1" fill="none" fill-rule="evenodd" sketch:type="MSPage">
        <g id="vamp_logo_blue" sketch:type="MSLayerGroup" fill="#303747">
            <g id="Page-1" sketch:type="MSShapeGroup">
                <g id="vamp">
                    <g id="Group">
                        <path d="M22.6824696,62.757456 L0,3.21597329 L17.2898236,3.21597329 L30.2988871,40.3529578 L43.2523563,3.21597329 L60.5977742,3.21597329 L37.9153046,62.757456 L22.6824696,62.757456 Z M122.307434,62.757456 L118.638211,62.757456 L112.745217,54.5850956 C111.299758,55.8823022 109.77093,57.0960987 108.158688,58.2265215 C106.546445,59.3569444 104.850837,60.3391003 103.07181,61.1730188 C101.292784,62.0069373 99.4674567,62.6647964 97.595773,63.146616 C95.7240893,63.6284356 93.8246368,63.8693418 91.8973585,63.8693418 C87.7092345,63.8693418 83.7713451,63.1651545 80.0835722,61.7567588 C76.3957993,60.3483631 73.1713628,58.3006607 70.4101661,55.61359 C67.6489693,52.9265193 65.4715481,49.6372234 63.8778372,45.7456038 C62.2841263,41.8539842 61.4872828,37.4250168 61.4872828,32.4585689 C61.4872828,27.8256884 62.2841263,23.5727679 63.8778372,19.6996798 C65.4715481,15.8265916 67.6489693,12.5002333 70.4101661,9.72050502 C73.1713628,6.94077671 76.3957993,4.78188677 80.0835722,3.24377044 C83.7713451,1.7056541 87.7092345,0.936607475 91.8973585,0.936607475 C93.8246368,0.936607475 95.7333549,1.17751365 97.6235702,1.65933322 C99.5137854,2.1411528 101.348379,2.80827758 103.127405,3.6607276 C104.906431,4.51317761 106.60204,5.5138648 108.214282,6.66281916 C109.826524,7.81177353 111.336821,9.05336689 112.745217,10.3876365 L118.638211,3.32716187 L122.307434,3.32716187 L122.307434,62.757456 Z M107.019005,32.4585689 C107.019005,30.3830384 106.620583,28.3723985 105.823728,26.4265886 C105.026872,24.4807788 103.942794,22.7573731 102.571462,21.2563198 C101.200129,19.7552665 99.5971766,18.5507357 97.7625559,17.6426911 C95.9279352,16.7346465 93.9728889,16.280631 91.8973585,16.280631 C89.821828,16.280631 87.8667817,16.6327247 86.0321611,17.3369225 C84.1975404,18.0411203 82.6038534,19.07887 81.2510523,20.4502026 C79.8982512,21.8215353 78.8327046,23.5171441 78.0543807,25.53708 C77.2760568,27.5570159 76.8869006,29.8641558 76.8869006,32.4585689 C76.8869006,35.052982 77.2760568,37.3601219 78.0543807,39.3800578 C78.8327046,41.3999937 79.8982512,43.0956025 81.2510523,44.4669352 C82.6038534,45.8382678 84.1975404,46.8760175 86.0321611,47.5802153 C87.8667817,48.2844131 89.821828,48.6365068 91.8973585,48.6365068 C93.9728889,48.6365068 95.9279352,48.1824913 97.7625559,47.2744467 C99.5971766,46.3664021 101.200129,45.1618713 102.571462,43.660818 C103.942794,42.1597647 105.026872,40.436359 105.823728,38.4905492 C106.620583,36.5447394 107.019005,34.5340994 107.019005,32.4585689 L107.019005,32.4585689 Z M209.590467,62.757456 L194.46882,62.757456 L194.46882,24.95334 C194.46882,23.9155748 194.274242,22.9334188 193.88508,22.0068427 C193.495918,21.0802666 192.949247,20.2648919 192.245049,19.560694 C191.540851,18.8564962 190.725476,18.3098245 189.7989,17.9206625 C188.872324,17.5315006 187.890168,17.3369225 186.852403,17.3369225 C185.814638,17.3369225 184.841747,17.5315006 183.933703,17.9206625 C183.025658,18.3098245 182.228815,18.8564962 181.543148,19.560694 C180.857482,20.2648919 180.320076,21.0802666 179.930914,22.0068427 C179.541752,22.9334188 179.347174,23.9155748 179.347174,24.95334 L179.347174,62.757456 L164.169933,62.757456 L164.169933,24.95334 C164.169933,23.9155748 163.975355,22.9334188 163.586193,22.0068427 C163.197031,21.0802666 162.650359,20.2648919 161.946162,19.560694 C161.241964,18.8564962 160.426589,18.3098245 159.500013,17.9206625 C158.573437,17.5315006 157.591281,17.3369225 156.553516,17.3369225 C155.51575,17.3369225 154.54286,17.5315006 153.634816,17.9206625 C152.726771,18.3098245 151.929927,18.8564962 151.244261,19.560694 C150.558595,20.2648919 150.021189,21.0802666 149.632027,22.0068427 C149.242865,22.9334188 149.048287,23.9155748 149.048287,24.95334 L149.048287,62.757456 L133.871046,62.757456 L133.871046,3.21597329 L137.540269,3.21597329 L141.654246,7.77470493 C143.76684,5.99567881 146.092511,4.61510112 148.63133,3.63293045 C151.170148,2.65075978 153.81085,2.15968182 156.553516,2.15968182 C159.333244,2.15968182 162.048071,2.67855665 164.698079,3.71632189 C167.348087,4.75408712 169.673758,6.5516178 171.675162,9.10896785 C172.601738,7.84882435 173.658019,6.77401219 174.844037,5.88449913 C176.030054,4.99498607 177.280913,4.27226755 178.596651,3.71632189 C179.912389,3.16037622 181.274435,2.76195448 182.682831,2.52104469 C184.091227,2.2801349 185.48107,2.15968182 186.852403,2.15968182 C190.002762,2.15968182 192.958495,2.75268163 195.719692,3.93869904 C198.480889,5.12471645 200.88995,6.74620031 202.946949,8.80319926 C205.003948,10.8601982 206.625432,13.2785256 207.811449,16.0582539 C208.997467,18.8379822 209.590467,21.8029812 209.590467,24.95334 L209.590467,62.757456 Z M235.942159,85.4399256 L220.65373,85.4399256 L220.65373,3.21597329 L224.322953,3.21597329 L230.38273,10.3876365 C231.754063,9.09042993 233.255094,7.86736782 234.885868,6.71841345 C236.516642,5.56945908 238.212251,4.57803752 239.972745,3.74411903 C241.73324,2.91020054 243.558567,2.25234137 245.448783,1.7705218 C247.338998,1.28870222 249.247716,1.04779605 251.174994,1.04779605 C255.363118,1.04779605 259.301008,1.79831144 262.988781,3.29936472 C266.676553,4.80041801 269.90099,6.92224546 272.662187,9.66491073 C275.423383,12.407576 277.600805,15.7154031 279.194516,19.5884912 C280.788226,23.4615793 281.58507,27.7515623 281.58507,32.4585689 C281.58507,37.3508907 280.788226,41.7520612 279.194516,45.6622124 C277.600805,49.5723635 275.423383,52.8894562 272.662187,55.61359 C269.90099,58.3377237 266.676553,60.4224887 262.988781,61.8679474 C259.301008,63.3134061 255.363118,64.0361246 251.174994,64.0361246 C249.840725,64.0361246 248.515741,63.8878747 247.200003,63.5913703 C245.884265,63.294866 244.587078,62.8964442 243.308402,62.3960931 C242.029727,61.895742 240.769603,61.3305391 239.527991,60.7004673 C238.286379,60.0703956 237.091114,59.421802 235.942159,58.7546672 L235.942159,85.4399256 Z M266.352235,32.4585689 C266.352235,29.9382819 265.953813,27.6774701 265.156958,25.6760657 C264.360102,23.6746614 263.276025,21.9790525 261.904692,20.5891884 C260.533359,19.1993242 258.921141,18.1337777 257.067989,17.3925168 C255.214837,16.6512559 253.250525,16.280631 251.174994,16.280631 C249.099464,16.280631 247.144418,16.6512559 245.309797,17.3925168 C243.475176,18.1337777 241.872224,19.1993242 240.500891,20.5891884 C239.129558,21.9790525 238.045481,23.6746614 237.248625,25.6760657 C236.45177,27.6774701 236.053348,29.9382819 236.053348,32.4585689 C236.053348,34.8676668 236.45177,37.0728848 237.248625,39.0742892 C238.045481,41.0756936 239.129558,42.780568 240.500891,44.1889637 C241.872224,45.5973594 243.475176,46.6907028 245.309797,47.4690267 C247.144418,48.2473507 249.099464,48.6365068 251.174994,48.6365068 C253.250525,48.6365068 255.214837,48.2473507 257.067989,47.4690267 C258.921141,46.6907028 260.533359,45.5973594 261.904692,44.1889637 C263.276025,42.780568 264.360102,41.0756936 265.156958,39.0742892 C265.953813,37.0728848 266.352235,34.8676668 266.352235,32.4585689 L266.352235,32.4585689 Z" id="vamp"></path>
                    </g>
                </g>
            </g>
        </g>
    </g>
</svg>

<svg width="285" height="86" viewBox="0 0 285 86" xmlns="http://www.w3.org/2000/svg"><title>Slice 1</title><g fill="#303747" id="Page-1" fill-rule="evenodd"><path d="M22.682 62.757L0 3.217h17.29L30.3 40.352 43.25 3.216h17.346l-22.683 59.54H22.682zm99.625 0h-3.67l-5.892-8.172c-1.445 1.297-2.974 2.51-4.586 3.642-1.614 1.13-3.31 2.112-5.088 2.946-1.78.834-3.605 1.492-5.476 1.974-1.872.48-3.77.722-5.7.722-4.187 0-8.125-.705-11.812-2.113-3.688-1.41-6.913-3.456-9.674-6.143-2.76-2.687-4.938-5.977-6.532-9.868-1.594-3.892-2.39-8.32-2.39-13.287 0-4.634.796-8.887 2.39-12.76 1.594-3.873 3.77-7.2 6.532-9.98 2.76-2.78 5.986-4.938 9.674-6.476C83.77 1.706 87.71.937 91.897.937c1.928 0 3.836.24 5.727.722 1.89.48 3.724 1.148 5.503 2 1.78.853 3.475 1.854 5.087 3.003 1.613 1.15 3.123 2.39 4.53 3.725l5.894-7.06h3.67v59.43zM107.02 32.46c0-2.077-.4-4.088-1.196-6.033-.797-1.946-1.88-3.67-3.253-5.17-1.37-1.502-2.973-2.706-4.807-3.614-1.835-.908-3.79-1.362-5.866-1.362-2.075 0-4.03.353-5.865 1.057-1.834.704-3.428 1.742-4.78 3.113-1.354 1.372-2.42 3.067-3.198 5.087-.778 2.02-1.167 4.327-1.167 6.922 0 2.593.39 4.9 1.167 6.92.78 2.02 1.844 3.716 3.197 5.087 1.354 1.37 2.948 2.41 4.782 3.113 1.835.704 3.79 1.057 5.865 1.057 2.076 0 4.03-.455 5.866-1.363 1.834-.908 3.437-2.112 4.808-3.613 1.373-1.5 2.457-3.224 3.254-5.17.797-1.945 1.195-3.956 1.195-6.03zm102.57 30.297h-15.12V24.953c0-1.037-.196-2.02-.585-2.946-.39-.927-.936-1.742-1.64-2.446-.704-.704-1.52-1.25-2.446-1.64-.928-.388-1.91-.583-2.948-.583-1.037 0-2.01.195-2.918.584-.908.39-1.705.936-2.39 1.64-.687.705-1.224 1.52-1.613 2.447-.388.926-.583 1.91-.583 2.946v37.804H164.17V24.953c0-1.037-.195-2.02-.584-2.946-.39-.927-.936-1.742-1.64-2.446-.704-.704-1.52-1.25-2.446-1.64-.927-.388-1.91-.583-2.946-.583-1.038 0-2.01.195-2.92.584-.907.39-1.704.936-2.39 1.64-.685.705-1.223 1.52-1.612 2.447-.39.926-.584 1.91-.584 2.946v37.804H133.87V3.217h3.67l4.114 4.558c2.113-1.78 4.44-3.16 6.977-4.142 2.54-.982 5.18-1.473 7.924-1.473 2.78 0 5.494.52 8.144 1.556 2.65 1.038 4.976 2.836 6.977 5.393.927-1.26 1.983-2.336 3.17-3.226 1.185-.89 2.436-1.612 3.752-2.168 1.315-.556 2.677-.954 4.086-1.195 1.408-.24 2.798-.36 4.17-.36 3.15 0 6.105.593 8.867 1.78 2.76 1.185 5.17 2.806 7.227 4.863 2.057 2.057 3.678 4.476 4.864 7.255 1.187 2.78 1.78 5.745 1.78 8.895v37.804zm26.352 22.683h-15.288V3.216h3.67l6.06 7.172c1.37-1.298 2.87-2.52 4.502-3.67 1.63-1.15 3.326-2.14 5.087-2.974 1.76-.834 3.586-1.492 5.476-1.973 1.89-.48 3.798-.722 5.725-.722 4.188 0 8.126.75 11.814 2.25 3.687 1.502 6.91 3.624 9.672 6.367 2.76 2.743 4.94 6.05 6.533 9.923 1.593 3.874 2.39 8.164 2.39 12.87 0 4.893-.797 9.294-2.39 13.204-1.594 3.91-3.772 7.227-6.533 9.952-2.76 2.724-5.985 4.808-9.673 6.254-3.69 1.445-7.627 2.168-11.815 2.168-1.334 0-2.66-.148-3.975-.445-1.316-.295-2.613-.694-3.892-1.194-1.278-.5-2.538-1.065-3.78-1.696-1.242-.63-2.437-1.278-3.586-1.945V85.44zm30.41-52.98c0-2.522-.398-4.783-1.195-6.784-.797-2-1.88-3.697-3.252-5.087-1.372-1.39-2.984-2.456-4.837-3.197-1.853-.742-3.817-1.112-5.893-1.112-2.076 0-4.03.37-5.865 1.113-1.835.74-3.438 1.806-4.81 3.196-1.37 1.39-2.455 3.085-3.25 5.086-.798 2-1.197 4.262-1.197 6.783 0 2.408.4 4.613 1.196 6.614.795 2.002 1.88 3.707 3.25 5.115 1.372 1.407 2.975 2.5 4.81 3.28 1.834.777 3.79 1.167 5.865 1.167 2.076 0 4.04-.39 5.893-1.168 1.853-.78 3.465-1.873 4.837-3.28 1.37-1.41 2.455-3.114 3.252-5.116.797-2 1.195-4.206 1.195-6.615z" id="vamp"/></g></svg>
